icon_installer/data/icons/scalable/actions/show-camera-static-inverse-symbolic.svg

<?xml version="1.0" encoding="UTF-8"?>
<svg height="16px" viewBox="0 0 16 16" width="16px" xmlns="http://www.w3.org/2000/svg">
    <g fill="#222222">
        <path d="m 2.398438 2 c -1.328126 0 -2.398438 1.070312 -2.398438 2.398438 v 7.203124 c 0 1.328126 1.070312 2.398438 2.398438 2.398438 h 7.203124 c 1.328126 0 2.398438 -1.070312 2.398438 -2.398438 v -7.203124 c 0 -1.328126 -1.070312 -2.398438 -2.398438 -2.398438 z m 0.105468 2.023438 h 6.992188 c 0.265625 0 0.480468 0.214843 0.480468 0.480468 v 6.992188 c 0 0.265625 -0.214843 0.480468 -0.480468 0.480468 h -6.992188 c -0.265625 0 -0.480468 -0.214843 -0.480468 -0.480468 v -6.992188 c 0 -0.265625 0.214843 -0.480468 0.480468 -0.480468 z m 0 0"/>
        <path d="m 12 8 l 3 -3 h 1 v 6 h -1 z m 0 0"/>
        <path d="m 4.984375 5.984375 l -0.015625 0.015625 h -0.96875 v 0.972656 l -0.007812 0.007813 l 0.007812 0.003906 v 0.015625 h 0.015625 l 0.992187 0.988281 l -1.011718 1.007813 l 0.003906 0.003906 v 1 h 1 v -0.027344 l 1 -0.996094 l 1 0.996094 v 0.027344 h 1 v -1 l 0.003906 -0.003906 l -1.011718 -1.007813 l 0.992187 -0.988281 h 0.015625 v -0.015625 l 0.003906 -0.007813 l -0.003906 -0.003906 v -0.972656 h -0.96875 l -0.015625 -0.015625 l -0.011719 0.015625 h -0.007812 v 0.003906 l -0.996094 0.996094 l -1 -0.996094 v -0.003906 h -0.003906 z m 0 0"/>
    </g>
</svg>

<svg xmlns="http://www.w3.org/2000/svg" width="16" height="16"><g fill="#222"><path d="M2.398 2A2.394 2.394 0 0 0 0 4.398v7.204A2.394 2.394 0 0 0 2.398 14h7.204A2.394 2.394 0 0 0 12 11.602V4.398A2.394 2.394 0 0 0 9.602 2zm.106 2.023h6.992a.48.48 0 0 1 .48.48v6.993a.48.48 0 0 1-.48.48H2.504a.48.48 0 0 1-.48-.48V4.504a.48.48 0 0 1 .48-.48zm0 0"/><path d="m12 8 3-3h1v6h-1zM4.984 5.984 4.97 6H4v.973l-.008.007.008.004V7h.016l.992.988-1.012 1.008L4 9v1h1v-.027l1-.996 1 .996V10h1V9l.004-.004-1.012-1.008L7.984 7H8v-.016l.004-.007L8 6.973V6h-.969l-.015-.016L7.004 6h-.008v.004L6 7l-1-.996V6h-.004zm0 0"/></g></svg>
